src/icons/radar.svg

<!-- https://www.svgrepo.com/collection/nimble-tiny-flat-icons -->
<svg width="16" height="16" viewBox="0 0 32 32" fill="none" xmlns="http://www.w3.org/2000/svg">
<g clip-path="url(#clip0_901_3013)">
<path fill-rule="evenodd" clip-rule="evenodd" d="M27.4729 25.6635C29.6737 23.0532 31 19.6815 31 16C31 7.71573 24.2843 1 16 1C7.71573 1 1 7.71573 1 16C1 24.2843 7.71573 31 16 31C19.1661 31 22.1031 30.0191 24.5237 28.3446C24.5224 28.3432 24.5212 28.3419 24.52 28.3405C24.19 27.9905 24 27.5205 24 27.0005C24 25.9005 24.9 25.0005 26 25.0005C26.58 25.0005 27.11 25.2505 27.47 25.6605C27.471 25.6615 27.4719 25.6625 27.4729 25.6635ZM9 16C9 14.981 8.22 14.13 7.23 14.02V14.01C7.16001 14 7.08002 14 7.00002 14C5.90002 14 5 14.901 5 16C5 17.1 5.9 18 7 18C7.08 18 7.16 18 7.23 17.991V17.981C8.22 17.871 9 17.02 9 16Z" fill="#FFE6EA"/>
<path d="M26 25C26.58 25 27.11 25.25 27.47 25.66C27.81 26.01 28 26.48 28 27C28 28.1 27.1 29 26 29C25.42 29 24.89 28.75 24.52 28.34C24.19 27.99 24 27.52 24 27C24 25.9 24.9 25 26 25ZM7.23 14.0195C8.22 14.1295 9 14.9805 9 15.9995C9 17.0195 8.22 17.8705 7.23 17.9805V17.9905C7.16 17.9995 7.08 17.9995 7 17.9995C5.9 17.9995 5 17.0995 5 15.9995C5 14.9005 5.9 13.9995 7 13.9995C7.08 13.9995 7.16 13.9995 7.23 14.0095V14.0195Z" fill="#FFC44D"/>
<path d="M29.2695 22.999C30.3745 20.91 30.9995 18.527 30.9995 16C30.9995 7.716 24.2845 1 15.9995 1L16 16M13 1.3008C6.153 2.6898 1 8.7428 1 15.9998C1 24.2838 7.716 30.9998 16 30.9998C19.189 30.9998 22.11 30.0628 24.541 28.3658M8.5166 21.002C10.1316 23.412 12.8806 25 15.9996 25C20.9706 25 24.9996 20.971 24.9996 16C24.9996 11.029 20.9706 7 15.9996 7M13 7.5117C10.09 8.5397 7.887 10.9367 7.223 13.9997M9 16C9 14.896 8.104 14 7 14C5.896 14 5 14.896 5 16C5 17.104 5.896 18 7 18C8.104 18 9 17.104 9 16ZM28 27C28 25.896 27.104 25 26 25C24.896 25 24 25.896 24 27C24 28.104 24.896 29 26 29C27.104 29 28 28.104 28 27Z" stroke="#000000" stroke-width="2" stroke-linecap="round" stroke-linejoin="round"/>
</g>
<defs>
<clipPath id="clip0_901_3013">
<rect width="32" height="32" fill="white"/>
</clipPath>
</defs>
</svg>

<svg xmlns="http://www.w3.org/2000/svg" width="16" height="16" fill="none" viewBox="0 0 32 32"><g clip-path="url(#a)"><path fill="#FFE6EA" fill-rule="evenodd" d="M27.4729 25.6635C29.6737 23.0532 31 19.6815 31 16c0-8.2843-6.7157-15-15-15S1 7.7157 1 16s6.7157 15 15 15c3.1661 0 6.1031-.9809 8.5237-2.6554a.137.137 0 0 1-.0037-.0041c-.33-.35-.52-.82-.52-1.34 0-1.1.9-2 2-2 .58 0 1.11.25 1.47.66zM9 16c0-1.019-.78-1.87-1.77-1.98v-.01C7.16 14 7.08 14 7 14c-1.1 0-2 .901-2 2 0 1.1.9 2 2 2 .08 0 .16 0 .23-.009v-.01C8.22 17.871 9 17.02 9 16" clip-rule="evenodd"/><path fill="#FFC44D" d="M26 25c.58 0 1.11.25 1.47.66.34.35.53.82.53 1.34 0 1.1-.9 2-2 2-.58 0-1.11-.25-1.48-.66-.33-.35-.52-.82-.52-1.34 0-1.1.9-2 2-2M7.23 14.0195c.99.11 1.77.961 1.77 1.98 0 1.02-.78 1.871-1.77 1.981v.01c-.07.009-.15.009-.23.009-1.1 0-2-.9-2-2 0-1.099.9-2 2-2 .08 0 .16 0 .23.01z"/><path stroke="#000" stroke-linecap="round" stroke-linejoin="round" stroke-width="2" d="M29.2695 22.999c1.105-2.089 1.73-4.472 1.73-6.999 0-8.284-6.715-15-15-15L16 16M13 1.3008c-6.847 1.389-12 7.442-12 14.699 0 8.284 6.716 15 15 15 3.189 0 6.11-.937 8.541-2.634M8.5166 21.002c1.615 2.41 4.364 3.998 7.483 3.998 4.971 0 9-4.029 9-9s-4.029-9-9-9M13 7.5117c-2.91 1.028-5.113 3.425-5.777 6.488M9 16c0-1.104-.896-2-2-2s-2 .896-2 2 .896 2 2 2 2-.896 2-2m19 11c0-1.104-.896-2-2-2s-2 .896-2 2 .896 2 2 2 2-.896 2-2"/></g><defs><clipPath id="a"><path fill="#fff" d="M0 0h32v32H0z"/></clipPath></defs></svg>
